X:1
I:linebreak $
T:La Vita
T:for three
C:Nathan Kronenfeld
P:5x
M:6/4
L:1/8
K:C major
P:A
"Am"E6 A3Bc2 | "Dm"d2A2d2 "C"c3BAG | "Am"c4B2 "Dm"d3cBA | "E"A4^G2 "Am2."A6 || 
P:B
"Am"B3GB2 "G"A2G2E2 | "Am"B3GB2 "Am"A2G2E2 | 
EFGFED E6 |] 

